!!!OTL: ハッピーエンド
**kern	**dynam	**kern	**dynam	**kern	**dynam	**kern	**dynam	**kern	**dynam
*part5	*part5	*part4	*part4	*part3	*part3	*part2	*part2	*part1	*part1
*staff5	*	*staff4	*	*staff3	*	*staff2	*	*staff1	*
*I"アコースティックベース	*	*I"クラシックギター	*	*I"クラシックギター	*	*I"クラシックギター	*	*I"melody	*
*I'バス	*	*I'Guit.	*	*I'Guit.	*	*I'Guit.	*	*I'melody	*
*clefFv4	*	*clefGv2	*	*clefGv2	*	*clefGv2	*	*clefG2	*
*k[f#c#g#]	*	*k[f#c#g#]	*	*k[f#c#g#]	*	*k[f#c#g#]	*	*k[f#c#g#]	*
*M4/4	*	*M4/4	*	*M4/4	*	*M4/4	*	*M4/4	*
*MM75	*	*MM75	*	*MM75	*	*MM75	*	*MM75	*
=1	=1	=1	=1	=1	=1	=1	=1	=1	=1
1r	.	1r	.	2r	.	1r	.	1r	.
.	.	.	.	8AL	mf	.	.	.	.
.	.	.	.	8B	.	.	.	.	.
.	.	.	.	8c#	.	.	.	.	.
.	.	.	.	8f#J	.	.	.	.	.
=2	=2	=2	=2	=2	=2	=2	=2	=2	=2
8DD^L	mf	8D	mf	2e	.	1ee	mf	1r	.
8DD	.	4D	.	.	.	.	.	.	.
8DD^	.	.	.	.	.	.	.	.	.
8DDJ	.	8D	.	.	.	.	.	.	.
8DD^L	.	8D	.	4A	.	.	.	.	.
8DD	.	4D	.	.	.	.	.	.	.
8DD^	.	.	.	8BL	.	.	.	.	.
8DDJ	.	8D	.	[8G#J	.	.	.	.	.
=3	=3	=3	=3	=3	=3	=3	=3	=3	=3
8CC#^L	.	8C#	.	4G#]	.	2cc#	.	1r	.
8CC#	.	4C#	.	.	.	.	.	.	.
8CC#^	.	.	.	4a	.	.	.	.	.
8CC#J	.	8C#	.	.	.	.	.	.	.
8CC#^L	.	8E#X	.	4g#	.	2ee#X	.	.	.
8CC#	.	4E#	.	.	.	.	.	.	.
8CC#^	.	.	.	8BL	.	.	.	.	.
8CC#J	.	8E#	.	[8AJ	.	.	.	.	.
=4	=4	=4	=4	=4	=4	=4	=4	=4	=4
8FFF#^L	.	8F#	.	4.A]	.	1ff#	.	1r	.
8FFF#	.	4F#	.	.	.	.	.	.	.
8FFF#^	.	.	.	.	.	.	.	.	.
8FFF#J	.	8F#	.	8G#	.	.	.	.	.
8FFF#^L	.	8F#	.	4A	.	.	.	.	.
8FFF#	.	4F#	.	.	.	.	.	.	.
8FFF#^	.	.	.	8c#L	.	.	.	.	.
8FFF#J	.	8F#	.	[8g#J	.	.	.	.	.
=5	=5	=5	=5	=5	=5	=5	=5	=5	=5
8DD#X^L	.	8B	.	2g#]	.	1dd#X	.	1r	.
8DD#	.	4B	.	.	.	.	.	.	.
8DD#^	.	.	.	.	.	.	.	.	.
8DD#J	.	8B	.	.	.	.	.	.	.
8DD#^L	.	8D#X	.	4f#	.	.	.	.	.
8DD#	.	4D#	.	.	.	.	.	.	.
8DD#^	.	.	.	4b	.	.	.	.	.
8DD#J	.	8D#	.	.	.	.	.	.	.
=6	=6	=6	=6	=6	=6	=6	=6	=6	=6
8DD^L	.	8D	.	4a	.	1dd	.	1r	.
8DD	.	4D	.	.	.	.	.	.	.
8DD^	.	.	.	8f#L	.	.	.	.	.
8DDJ	.	8D	.	[8eJ	.	.	.	.	.
8DD^L	.	8D	.	8e]	.	.	.	.	.
8DD	.	4D	.	4d	.	.	.	.	.
8DD^	.	.	.	.	.	.	.	.	.
8DDJ	.	8D	.	8A	.	.	.	.	.
=7	=7	=7	=7	=7	=7	=7	=7	=7	=7
1EEE	p	8AAL	p	1B	p	2b	p	16r	.
.	.	.	.	.	.	.	.	16r	.
.	.	8BB	.	.	.	.	.	8r	.
.	.	8E	.	.	.	.	.	4r	.
.	.	8AAJ	.	.	.	.	.	.	.
.	.	2GG#	.	.	.	4r	.	16r	.
.	.	.	.	.	.	.	.	16r	.
.	.	.	.	.	.	.	.	8r	.
.	.	.	.	.	.	8r	.	16r	.
.	.	.	.	.	.	.	.	16r	.
.	.	.	.	.	.	16r	.	16r	.
.	.	.	.	.	.	16d	mp	16D	mp
=8	=8	=8	=8	=8	=8	=8	=8	=8	=8
4DD	.	8r	.	1dd	.	8aL	.	8AL	.
.	.	8AAL	.	.	.	16aL	.	16AL	.
.	.	.	.	.	.	16bJJ	.	16BJJ	.
4DD	.	8C#	.	.	.	8cc#L	.	8c#L	.
.	.	8AAJ	.	.	.	8eeJ	.	8eJ	.
4DD	.	8DL	.	.	.	8ddL	.	8dL	.
.	.	8AA	.	.	.	8cc#J	.	8c#J	.
8.DDL	.	8BB	.	.	.	16bLL	.	16BLL	.
.	.	.	.	.	.	16aJ	.	16AJ	.
.	.	8AAJ	.	.	.	8aJ	.	8AJ	.
16DDJk	.	.	.	.	.	.	.	.	.
=9	=9	=9	=9	=9	=9	=9	=9	=9	=9
4AAA	.	8r	.	1cc#	.	8r	.	8r	.
.	.	8AAL	.	.	.	8e	.	8E	.
4AAA	.	8BB	.	.	.	16aLL	.	16ALL	.
.	.	.	.	.	.	16aJ	.	16AJ	.
.	.	8AAJ	.	.	.	8bJ	.	8BJ	.
4AAA	.	8C#L	.	.	.	8ddL	.	8dL	.
.	.	8AA	.	.	.	16cc#L	.	16c#L	.
.	.	.	.	.	.	16bJJ	.	16BJJ	.
8.AAAL	.	8BB	.	.	.	8.cc#L	.	8.c#L	.
.	.	8AAJ	.	.	.	.	.	.	.
16AAAJk	.	.	.	.	.	16eJk	.	16EJk	.
=10	=10	=10	=10	=10	=10	=10	=10	=10	=10
4BBB	.	8r	.	1b	.	16bLL	.	16BLL	.
.	.	.	.	.	.	16a	.	16A	.
.	.	8DL	.	.	.	16b	.	16B	.
.	.	.	.	.	.	16aJJ	.	16AJJ	.
4BBB	.	8C#	.	.	.	8bL	.	8BL	.
.	.	8AAJ	.	.	.	16cc#K	.	16c#K	.
.	.	.	.	.	.	8b	.	8B	.
4BBB	.	8BBL	.	.	.	.	.	.	.
.	.	.	.	.	.	8a	.	8A	.
.	.	8AA	.	.	.	.	.	.	.
.	.	.	.	.	.	16eJk	.	16EJk	.
8.BBBL	.	8BB	.	.	.	16f#KL	.	16F#KL	.
.	.	.	.	.	.	8a	.	8A	.
.	.	8AAJ	.	.	.	.	.	.	.
16BBBJk	.	.	.	.	.	16aJk	.	16AJk	.
=11	=11	=11	=11	=11	=11	=11	=11	=11	=11
4FFF#	.	8r	.	2a	.	16bLL	.	16BLL	.
.	.	.	.	.	.	16a	.	16A	.
.	.	8C#L	.	.	.	16b	.	16B	.
.	.	.	.	.	.	16aJJ	.	16AJJ	.
4FFF#	.	8BB	.	.	.	8bL	.	8BL	.
.	.	8AAJ	.	.	.	16cc#L	.	16c#L	.
.	.	.	.	.	.	[16bJJ	.	[16BJJ	.
4FFF#	.	8EL	.	8r	.	16bKL]	.	16BKL]	.
.	.	.	.	.	.	8aJ	.	8AJ	.
.	.	8D	.	8eL	.	.	.	.	.
.	.	.	.	.	.	4r	.	4r	.
8AAL	.	8C#	.	8B	.	.	.	.	.
8EEJ	.	8AAJ	.	8AJ	.	.	.	.	.
.	.	.	.	.	.	16e	.	16E	.
=12	=12	=12	=12	=12	=12	=12	=12	=12	=12
4DD	.	8r	.	2.d	.	8aL	.	8AL	.
.	.	8AAL	.	.	.	16aL	.	16AL	.
.	.	.	.	.	.	16bJJ	.	16BJJ	.
4DD	.	8C#	.	.	.	8cc#L	.	8c#L	.
.	.	8AAJ	.	.	.	8eeJ	.	8eJ	.
4DD	.	8DL	.	.	.	8ddL	.	8dL	.
.	.	8AA	.	.	.	8cc#J	.	8c#J	.
8.DDL	.	8BB	.	4d	.	16bLL	.	16BLL	.
.	.	.	.	.	.	16aJ	.	16AJ	.
.	.	8AAJ	.	.	.	8aJ	.	8AJ	.
16DDJk	.	.	.	.	.	.	.	.	.
=13	=13	=13	=13	=13	=13	=13	=13	=13	=13
4AAA	.	8r	.	[2c#	.	8r	.	8r	.
.	.	8AAL	.	.	.	16eLL	.	16ELL	.
.	.	.	.	.	.	16eJJ	.	16EJJ	.
4AAA	.	8BB	.	.	.	16aLL	.	16ALL	.
.	.	.	.	.	.	16a	.	16A	.
.	.	8AAJ	.	.	.	16b	.	16B	.
.	.	.	.	.	.	16bJJ	.	16BJJ	.
4AAA	.	8C#L	.	8c#L]	.	8ddL	.	8dL	.
.	.	8AA	.	16c#L	.	16cc#L	.	16c#L	.
.	.	.	.	16dJJ	.	16bJJ	.	16BJJ	.
8.AAAL	.	8BB	.	16c#LL	.	8.cc#L	.	8.c#L	.
.	.	.	.	16AJ	.	.	.	.	.
.	.	8AAJ	.	8EJ	.	.	.	.	.
16AAAJk	.	.	.	.	.	16eJk	.	16EJk	.
=14	=14	=14	=14	=14	=14	=14	=14	=14	=14
4BBB	.	8r	.	16dLL	.	16bLL	.	16BLL	.
.	.	.	.	16c#	.	16a	.	16A	.
.	.	8DL	.	16d	.	16b	.	16B	.
.	.	.	.	16c#JJ	.	16aJJ	.	16AJJ	.
4BBB	.	8C#	.	8dL	.	8bL	.	8BL	.
.	.	8AAJ	.	16eK	.	16cc#K	.	16c#K	.
.	.	.	.	8d	.	8b	.	8B	.
4BBB	.	8BBL	.	.	.	.	.	.	.
.	.	.	.	[8c#	.	8a	.	8A	.
.	.	8C#	.	.	.	.	.	.	.
.	.	.	.	16c#Jk]	.	16f#Jk	.	16F#Jk	.
8.BBBL	.	8BB	.	4r	.	16f#KL	.	16F#KL	.
.	.	.	.	.	.	8a	.	8A	.
.	.	8AAJ	.	.	.	.	.	.	.
16BBBJk	.	.	.	.	.	16aJk	.	16AJk	.
=15	=15	=15	=15	=15	=15	=15	=15	=15	=15
4FFF#	.	8BBL	.	2E	.	[4a	>	[4A	>
.	.	8AA	.	.	.	.	.	.	.
4FFF#	.	8GG#	.	.	.	16aKL]	.	16AKL]	.
.	.	.	.	.	.	8g#	.	8G#	.
.	.	8.FF#	.	.	.	.	.	.	.
.	.	.	.	.	.	16eJk	.	16EJk	.
2FFF#	.	.	.	16AKL	.	4f#	.	4F#	.
.	.	8FF#	.	8ee	.	.	.	.	.
.	.	8GG#	.	8b	.	.	.	.	.
.	.	.	.	.	.	8.r	]	8.r	]
.	.	8FF#J	.	8a	.	.	.	.	.
.	.	16r	.	16BJk	.	16d	mp	16D	mp
=16	=16	=16	=16	=16	=16	=16	=16	=16	=16
8DD	.	2FF#	.	8f#L	.	8aL	.	8AL	.
4DD	.	.	.	16f#L	.	16aL	.	16AL	.
.	.	.	.	[16f#JJ	.	[16aJJ	.	[16AJJ	.
.	.	.	.	8f#L]	.	8aL]	.	8AL]	.
8DD	.	.	.	16f#L	.	16aL	.	16AL	.
.	.	.	.	[16f#JJ	.	[16aJJ	.	[16AJJ	.
8CC#	.	2EE#X	.	8f#L]	.	8aL]	.	8AL]	.
4CC#	.	.	.	16e#XL	.	16g#L	.	16G#L	.
.	.	.	.	[16e#JJ	.	[16g#JJ	.	[16G#JJ	.
.	.	.	.	16e#LL]	.	16g#LL]	.	16G#LL]	.
.	.	.	.	16d#X	.	16f#	.	16F#	.
8CC#	.	.	.	16e#	.	16g#	.	16G#	.
.	.	.	.	16f#JJ	.	16aJJ	.	16AJJ	.
=17	=17	=17	=17	=17	=17	=17	=17	=17	=17
8FF#	.	2.AA	.	2r	.	8r	.	8r	.
4FF#	.	.	.	.	.	16cc#LL	.	16c#LL	.
.	.	.	.	.	.	16cc#JJ	.	16c#JJ	.
.	.	.	.	.	.	16cc#KL	.	16c#KL	.
.	.	.	.	.	.	8ee	.	8e	.
8FF#	.	.	.	.	.	.	.	.	.
.	.	.	.	.	.	16ddJk	.	16dJk	.
8AA	.	.	.	4r	.	8ddL	.	8dL	.
4AA	.	.	.	.	.	8cc#J	.	8c#J	.
.	.	4E	.	16ddLL	.	16bLL	.	16BLL	.
.	.	.	.	16cc#J	.	16aJ	.	16AJ	.
8AA	.	.	.	8cc#J	.	8aJ	.	8AJ	.
=18	=18	=18	=18	=18	=18	=18	=18	=18	=18
8BBB	.	4.D	.	2dd	.	8r	.	8r	.
4BBB	.	.	.	.	.	16f#LL	.	16F#LL	.
.	.	.	.	.	.	16f#JJ	.	16F#JJ	.
.	.	.	.	.	.	16f#KL	.	16F#KL	.
.	.	.	.	.	.	8g#	.	8G#	.
8BBB	.	4.D	.	.	.	.	.	.	.
.	.	.	.	.	.	16g#Jk	.	16G#Jk	.
8BBB	.	.	.	2f#	.	8aL	.	8AL	.
4BBB	.	.	.	.	.	16f#K	.	16F#K	.
.	.	.	.	.	.	8a	.	8A	.
.	.	4D	.	.	.	.	.	.	.
.	.	.	.	.	.	8b	.	8B	.
8BBB	.	.	.	.	.	.	.	.	.
.	.	.	.	.	.	16bJk	.	16BJk	.
=19	=19	=19	=19	=19	=19	=19	=19	=19	=19
8CC#	.	2AA	.	2a	.	8ddL	>	8dL	>
4CC#	.	.	.	.	.	16cc#L	.	16c#L	.
.	.	.	.	.	.	[16bJJ	.	[16BJJ	.
.	.	.	.	.	.	16bLL]	.	16BLL]	.
.	.	.	.	.	.	16aJ	.	16AJ	.
8CC#	.	.	.	.	.	8cc#J	.	8c#J	.
16CC#LL	mf mf	16GG#LL	.	16gg#LL	mf	8.bL	.	8.BL	.
16CC#JJ	.	16GG#JJ	.	16eeJ	.	.	.	.	.
8r	.	8r	.	8bJ	.	.	.	.	.
.	.	.	.	.	.	16aJk	] mf	16AJk	] mf
4r	.	4r	.	4r	.	12aL	.	12AL	.
.	.	.	.	.	.	12b	.	12B	.
.	.	.	.	.	.	12cc#J	.	12c#J	.
=20	=20	=20	=20	=20	=20	=20	=20	=20	=20
4DD	.	4D	.	2f#	.	8.ff#L	.	8.f#L	.
.	.	.	.	.	.	16aJk	.	16AJk	.
4DD	.	8.DL	.	.	.	12aL	.	12AL	.
.	.	.	.	.	.	12b	.	12B	.
.	.	.	.	.	.	12cc#J	.	12c#J	.
.	.	8D	.	.	.	.	.	.	.
4FF#	.	.	.	2cc#	.	8.ff#L	.	8.f#L	.
.	.	16DK	.	.	.	.	.	.	.
.	.	8DJ	.	.	.	.	.	.	.
.	.	.	.	.	.	16aJk	.	16AJk	.
4FF#	.	8DL	.	.	.	12aL	.	12AL	.
.	.	.	.	.	.	12b	.	12B	.
.	.	16DL	.	.	.	.	.	.	.
.	.	.	.	.	.	12cc#J	.	12c#J	.
.	.	16AAJJ	.	.	.	.	.	.	.
=21	=21	=21	=21	=21	=21	=21	=21	=21	=21
4EE	.	4GG#	.	2ee	.	16.ff#LL	.	16.f#LL	.
.	.	.	.	.	.	16.ee	.	16.e	.
.	.	.	.	.	.	16ff#JJ	.	16f#JJ	.
4EE	.	8.GG#L	.	.	.	16.aaLL	.	16.aLL	.
.	.	.	.	.	.	16.gg#	.	16.g#	.
.	.	8GG#	.	.	.	16ff#JJ	.	16f#JJ	.
4GG#	.	.	.	2b	.	8eeL	.	8eL	.
.	.	16BBK	.	.	.	.	.	.	.
.	.	8BBJ	.	.	.	16ddL	.	16dL	.
.	.	.	.	.	.	[16cc#JJ	.	[16c#JJ	.
4GG#	.	8DL	.	.	.	8cc#L]	.	8c#L]	.
.	.	16C#L	.	.	.	16ddL	.	16dL	.
.	.	16DJJ	.	.	.	[16eeJJ	.	[16eJJ	.
=22	=22	=22	=22	=22	=22	=22	=22	=22	=22
4EE	.	4C#	.	2ee	.	4ee]	.	4e]	.
4EE	.	8.C#L	.	.	.	16r	.	16r	.
.	.	.	.	.	.	16eLL	.	16ELL	.
.	.	.	.	.	.	16e	.	16E	.
.	.	8C#	.	.	.	16eJJ	.	16EJJ	.
4GG#	.	.	.	2b	.	8eeL	.	8eL	.
.	.	16C#K	.	.	.	.	.	.	.
.	.	8C#J	.	.	.	16ddK	.	16dK	.
.	.	.	.	.	.	8cc#	.	8c#	.
4GG#	.	8FnL	.	.	.	.	.	.	.
.	.	.	.	.	.	8b	.	8B	.
.	.	8FJ	.	.	.	.	.	.	.
.	.	.	.	.	.	16bJk	.	16BJk	.
=23	=23	=23	=23	=23	=23	=23	=23	=23	=23
4FF#	.	4F#	.	2dd	.	[4dd	.	[4d	.
4AA	.	8.F#L	.	.	.	16ddKL]	.	16dKL]	.
.	.	.	.	.	.	8cc#	.	8c#	.
.	.	8F#	.	.	.	16bJk	.	16BJk	.
4FF#	.	.	.	2cc#	.	4cc#	.	4c#	.
.	.	16F#K	.	.	.	.	.	.	.
.	.	8C#J	.	.	.	.	.	.	.
8AAAL	.	8C#L	.	.	.	4r	.	4r	.
8GGG#J	.	8AAJ	.	.	.	.	.	.	.
=24	=24	=24	=24	=24	=24	=24	=24	=24	=24
4DD	.	4BB	.	2f#	.	16f#LL	.	16F#LL	.
.	.	.	.	.	.	16f#	.	16F#	.
.	.	.	.	.	.	16f#J	.	16F#J	.
.	.	.	.	.	.	8cc#	.	8c#	.
4DD	.	8.BBL	.	.	.	.	.	.	.
.	.	.	.	.	.	16bL	.	16BL	.
.	.	.	.	.	.	16b	.	16B	.
.	.	8BB	.	.	.	16cc#JJ	.	16c#JJ	.
4FF#	.	.	.	2a	.	16bLL	.	16BLL	.
.	.	16BBK	.	.	.	16b	.	16B	.
.	.	8BBJ	.	.	.	16bJ	.	16BJ	.
.	.	.	.	.	.	8cc#	.	8c#	.
8FF#L	.	8BBL	.	.	.	.	.	.	.
.	.	.	.	.	.	16bL	.	16BL	.
8FF#J	.	16FF#L	.	.	.	16cc#	.	16c#	.
.	.	16FFnJJ	.	.	.	16bJJ	.	16BJJ	.
=25	=25	=25	=25	=25	=25	=25	=25	=25	=25
4EE	.	4EE	.	2b	.	12eeL	.	12eL	.
.	.	.	.	.	.	12ee	.	12e	.
.	.	.	.	.	.	12eeJ	.	12eJ	.
4EE	.	8.EEL	.	.	.	12eeL	.	12eL	.
.	.	.	.	.	.	12dd	.	12d	.
.	.	.	.	.	.	12cc#J	.	12c#J	.
.	.	8EE	.	.	.	.	.	.	.
16AAAKL	.	.	.	2cc#	.	16cc#KL	.	16c#KL	.
8AAA	.	16EEK	.	.	.	8b	.	8B	.
.	.	8EJ	.	.	.	.	.	.	.
8AAA	.	.	.	.	.	16aJk	.	16AJk	.
.	.	8EL	.	.	.	12aL	.	12AL	.
8AAA	.	.	.	.	.	.	.	.	.
.	.	.	.	.	.	12b	.	12B	.
.	.	8BBJ	.	.	.	.	.	.	.
.	.	.	.	.	.	12cc#J	.	12c#J	.
16AAAJk	.	.	.	.	.	.	.	.	.
=26	=26	=26	=26	=26	=26	=26	=26	=26	=26
8DDL	<	4FF#	.	4g#	<	[2ff#	.	[2f#	.
8DD	.	.	.	.	.	.	.	.	.
8DD	.	8FF#L	.	4a	.	.	.	.	.
8DDJ	.	16C#L	.	.	.	.	.	.	.
.	.	16F#JJ	.	.	.	.	.	.	.
8DDL	.	8F#L	.	4b	.	8.ff#L]	.	8.f#L]	.
8DD	.	8F#J	.	.	.	.	.	.	.
.	.	.	.	.	.	16ff#Jk	>	16f#Jk	>
8DD	.	16C#LL	.	4cc#	.	12ff#L	.	12f#L	.
.	.	16F#J	.	.	.	.	.	.	.
.	.	.	.	.	.	12ee	.	12e	.
8DDJ	.	8C#J	.	.	.	.	.	.	.
.	.	.	.	.	.	12cc#J	]]	12c#J	]]
=27	=27	=27	=27	=27	=27	=27	=27	=27	=27
8CC#L	.	8FF#L	<	4b	.	2b	<	2B	<
8CC#	.	8FF#	.	.	.	.	.	.	.
8CC#	.	8C#	.	4ee#X	.	.	.	.	.
8CC#J	.	8C#J	.	.	.	.	.	.	.
16AAAKL	[ f	16E#XLL	[	4gg#	.	8.cc#L	[ f	8.c#L	[ f
8AAA	f	16E#JJ	.	.	.	.	.	.	.
.	.	8r	.	.	.	.	.	.	.
8AAA	.	.	.	.	.	16aJk	.	16AJk	.
.	.	4r	.	4ggn	[	12f#L 12a	.	12AL	.
8AAA	.	.	.	.	.	.	.	.	.
.	.	.	.	.	.	12g# 12b	.	12B	.
.	.	.	.	.	.	12aJ 12cc#	.	12c#J	.
16AAAJk	.	.	.	.	.	.	.	.	.
=28	=28	=28	=28	=28	=28	=28	=28	=28	=28
8DDL	.	8DL	.	2.ff#	.	8.cc#L 8.ff#	.	8.f#L	.
8DD	.	8D	.	.	.	.	.	.	.
.	.	.	.	.	.	16f#Jk 16a	.	16AJk	.
8DD	.	8D	.	.	.	12f#L 12a	.	12AL	.
.	.	.	.	.	.	12g# 12b	.	12B	.
8DDJ	.	8DJ	.	.	.	.	.	.	.
.	.	.	.	.	.	12aJ 12cc#	.	12c#J	.
8FF#L	.	8DL	.	.	.	8.cc#L 8.ff#	.	8.f#L	.
8FF#	.	8DJ	.	.	.	.	.	.	.
.	.	.	.	.	.	16f#Jk 16a	.	16AJk	.
8FF#	.	8DL	.	4cc#	.	12f#L 12a	.	12AL	.
.	.	.	.	.	.	12g# 12b	.	12B	.
8FF#J	.	16DL	.	.	.	.	.	.	.
.	.	.	.	.	.	12aJ 12cc#	.	12c#J	.
.	.	16AAJJ	.	.	.	.	.	.	.
=29	=29	=29	=29	=29	=29	=29	=29	=29	=29
8EEL	.	8DL	.	1b	.	16.cc#LL 16.ff#	.	16.f#LL	.
.	.	.	.	.	.	16.b 16.ee	.	16.e	.
8EE	.	8D	.	.	.	.	.	.	.
.	.	.	.	.	.	16cc#JJ 16ff#	.	16f#JJ	.
8EE	.	8D	.	.	.	16.eeLL 16.aa	.	16.aLL	.
.	.	.	.	.	.	16.ee 16.gg#	.	16.g#	.
8EEJ	.	8DJ	.	.	.	.	.	.	.
.	.	.	.	.	.	16cc#JJ 16ff#	.	16f#JJ	.
8GG#L	.	8DL	.	.	.	8bL 8ee	.	8eL	.
8GG#	.	8D	.	.	.	16aL 16dd	.	16dL	.
.	.	.	.	.	.	[16g#JJ [16cc#	.	[16c#JJ	.
8GG#	.	8D	.	.	.	8g#L] 8cc#]	.	8c#L]	.
8GG#J	.	8DJ	.	.	.	16aL 16dd	.	16dL	.
.	.	.	.	.	.	[16bJJ [16ee	.	[16eJJ	.
=30	=30	=30	=30	=30	=30	=30	=30	=30	=30
8EEL	.	8C#L	.	4ee	.	4b] 4ee]	.	4e]	.
8EE	.	8C#	.	.	.	.	.	.	.
8EE	.	8C#	.	4b	.	16r	.	16r	.
.	.	.	.	.	.	16bLL 16ee	.	16eLL	.
8EEJ	.	8C#J	.	.	.	16b 16ee	.	16e	.
.	.	.	.	.	.	16bJJ 16ee	.	16eJJ	.
8GG#L	.	8C#L	.	2g#	.	8cc#L 8ee#X	.	8eL	.
8GG#	.	8FFn	.	.	.	16g#K 16cc#	.	16c#K	.
.	.	.	.	.	.	8cc# 8ee#	.	8e	.
8GG#	.	8FF	.	.	.	.	.	.	.
.	.	.	.	.	.	8ee# 8gg#	.	8g#	.
8GG#J	.	8FFJ	.	.	.	.	.	.	.
.	.	.	.	.	.	16ee#Jk 16gg#	.	16g#Jk	.
=31	=31	=31	=31	=31	=31	=31	=31	=31	=31
8AAL	.	8FF#L	.	2b	.	[4ee [4gg#	.	[4g#	.
8AA	.	8FF#	.	.	.	.	.	.	.
8AA	.	8FF#	.	.	.	16eeKL] 16gg#]	.	16g#KL]	.
.	.	.	.	.	.	8cc# 8ff#	.	8f#	.
8AAJ	.	8C#J	.	.	.	.	.	.	.
.	.	.	.	.	.	16eeJk 16gg#	.	16g#Jk	.
8AAL	.	8F#L	.	2a	.	4ff# 4aa	.	4a	.
8AA	.	8F#	.	.	.	.	.	.	.
8AA	.	8F#	.	.	.	8r	.	8r	.
8AAJ	.	8EJ	.	.	.	16eLL	mf	16ELL	mf
.	.	.	.	.	.	[16cc#JJ	.	[16c#JJ	.
=32	=32	=32	=32	=32	=32	=32	=32	=32	=32
8.DDL	mp mp	4.FF#	.	2f#	mp	4cc#_	.	4c#_	.
8.DD	.	.	.	.	.	.	.	.	.
.	.	.	.	.	.	8cc#L]	.	8c#L]	.
8.DD	.	4.FF#	.	.	.	16bJk	.	16BJk	.
.	.	.	.	.	.	[4ee	.	[4e	.
.	.	.	.	4dd	.	.	.	.	.
8.DD	.	.	.	.	.	.	.	.	.
.	.	.	.	.	.	16ee]	.	16e]	.
8DD	.	4FF#	.	4a	.	8r	.	8r	.
8DDJ	.	.	.	.	.	8ff#	.	8f#	.
=33	=33	=33	=33	=33	=33	=33	=33	=33	=33
2EE	.	2E	.	2g#	.	8eeL	.	8eL	.
.	.	.	.	.	.	16cc#L	.	16c#L	.
.	.	.	.	.	.	[16bJJ	.	[16BJJ	.
.	.	.	.	.	.	8bL]	.	8BL]	.
.	.	.	.	.	.	8aJ	.	8AJ	.
2DD	.	8EL	.	4f#	.	8bL	.	8BL	.
.	.	8BB	.	.	.	16cc#L	.	16c#L	.
.	.	.	.	.	.	[16cc#JJ	.	[16c#JJ	.
.	.	8BB	.	4g#	.	4cc#]	.	4c#]	.
.	.	8EEJ	.	.	.	.	.	.	.
=34	=34	=34	=34	=34	=34	=34	=34	=34	=34
1AAA	.	4AA	.	4.a	.	1r	.	1r	.
.	.	4AA	.	.	.	.	.	.	.
.	.	.	.	4.b	.	.	.	.	.
.	.	8AAL	.	.	.	.	.	.	.
.	.	8BBJ	.	.	.	.	.	.	.
.	.	16C#LL	.	4cc#	.	.	.	.	.
.	.	16C#	.	.	.	.	.	.	.
.	.	16BB	.	.	.	.	.	.	.
.	.	16AAJJ	.	.	.	.	.	.	.
=35	=35	=35	=35	=35	=35	=35	=35	=35	=35
1AAA	.	1D	.	[4.dd	.	1r	.	1r	.
.	.	.	.	16ddLL]	.	.	.	.	.
.	.	.	.	16eeJJ	.	.	.	.	.
.	.	.	.	16ddLL	.	.	.	.	.
.	.	.	.	16ccn	.	.	.	.	.
.	.	.	.	16a	.	.	.	.	.
.	.	.	.	16fnJJ	.	.	.	.	.
.	.	.	.	16eLL	.	.	.	.	.
.	.	.	.	16d	.	.	.	.	.
.	.	.	.	16cn	.	.	.	.	.
.	.	.	.	16AJJ	.	.	.	.	.
=36	=36	=36	=36	=36	=36	=36	=36	=36	=36
8EEL	mf	2r	.	8r	.	2r	.	2r	.
8EE	.	.	.	8eL	p	.	.	.	.
8EE	.	.	.	8a	.	.	.	.	.
8EEJ	.	.	.	8eJ	.	.	.	.	.
8EEL	mf	4GGn	.	8r	.	8cc#L	mf	8c#L	mf
8EE	.	.	.	8eL	.	16bK	.	16BK	.
.	.	.	.	.	.	8.cc#	.	8.c#	.
8EE	.	4GG	.	8a	.	.	.	.	.
8EEJ	.	.	.	8eJ	.	16ddL	.	16dL	.
.	.	.	.	.	.	[16eeJJ	.	[16eJJ	.
=37	=37	=37	=37	=37	=37	=37	=37	=37	=37
8AAAL	.	4FF#	.	8r	.	8eeL]	.	8eL]	.
8AAA	.	.	.	8eL	.	16ddK	.	16dK	.
.	.	.	.	.	.	8.cc#	.	8.c#	.
8AAA	.	4FF#	.	8a	.	.	.	.	.
8AAAJ	.	.	.	8eJ	.	16aL	.	16AL	.
.	.	.	.	.	.	[16aJJ	.	[16AJJ	.
8AAAL	.	4FF#	.	8r	.	2a]	.	2A]	.
8AAA	.	.	.	8eL	.	.	.	.	.
8AAA	.	4FF#	.	8a	.	.	.	.	.
8AAAJ	.	.	.	8eJ	.	.	.	.	.
=38	=38	=38	=38	=38	=38	=38	=38	=38	=38
8FFnL	.	4FFn	.	8r	.	2r	.	2r	.
8FF	.	.	.	8eL	.	.	.	.	.
8FF	.	4FF	.	8a	.	.	.	.	.
8FFJ	.	.	.	8eJ	.	.	.	.	.
8FFL	.	8FnL	f	8r	.	4r	.	4r	.
8FF	.	8Gn	.	8eL	.	.	.	.	.
8FF	.	8A	.	8a	.	8r	.	8r	.
8FFJ	.	8FJ	.	8eJ	.	16r	.	16r	.
.	.	.	.	.	.	16dd	.	16d	.
=39	=39	=39	=39	=39	=39	=39	=39	=39	=39
8EEL	f	4E	.	8r	.	8eeL	.	8eL	.
8EE	.	.	.	8eL	.	16ff#L	.	16f#L	.
.	.	.	.	.	.	[16eeJJ	.	[16eJJ	.
8EE	.	8EL	.	8a	.	8eeL]	.	8eL]	.
8EEJ	.	[8eJ	.	8eJ	.	16ff#L	.	16f#L	.
.	.	.	.	.	.	[16aaJJ	.	[16aJJ	.
8EEL	.	8eL]	.	8r	.	8aaL]	.	8aL]	.
8EE	.	8E	.	8eL	.	16ff#L	.	16f#L	.
.	.	.	.	.	.	[16eeJJ	.	[16eJJ	.
8EE	.	8e	.	8a	.	8eeL]	.	8eL]	.
8EEJ	.	8EJ	.	8eJ	.	16cc#L	.	16c#L	.
.	.	.	.	.	.	[16bJJ	.	[16BJJ	.
=40	=40	=40	=40	=40	=40	=40	=40	=40	=40
8BBBL	.	8D#XL	.	8r	.	1b]	.	1B]	.
8BBB	.	8D#	.	8eL	.	.	.	.	.
8BBB	.	8D#	.	8a	.	.	.	.	.
8BBBJ	.	8D#J	.	8eJ	.	.	.	.	.
8BBBL	.	8D#L	.	8r	.	.	.	.	.
8BBB	.	8B	.	8eL	.	.	.	.	.
8BBB	.	8D#	.	8a	.	.	.	.	.
8BBBJ	.	8DnJ	.	8eJ	.	.	.	.	.
=41	=41	=41	=41	=41	=41	=41	=41	=41	=41
8AAAL	.	8DL	.	8r	.	1r	.	1r	.
8AAA	.	8D	.	8eL	.	.	.	.	.
8AAA	.	8D	.	8a	.	.	.	.	.
8AAAJ	.	8DJ	.	8eJ	.	.	.	.	.
8AAAL	.	8DL	.	8r	.	.	.	.	.
8AAA	.	8A	.	8eL	.	.	.	.	.
8AAA	.	8D	.	8a	.	.	.	.	.
8AAAJ	.	8D#XJ	.	8eJ	.	.	.	.	.
=42	=42	=42	=42	=42	=42	=42	=42	=42	=42
8EEEL	.	8EL	.	8r	.	1r	.	1r	.
8EEE	.	8E	.	8eL	.	.	.	.	.
8EEE	.	8BB	.	8a	.	.	.	.	.
[8EEEJ	.	[8EEJ	.	8eJ	.	.	.	.	.
2EEE]	.	2EE]	.	8r	.	.	.	.	.
.	.	.	.	8eL	.	.	.	.	.
.	.	.	.	8a	.	.	.	.	.
.	.	.	.	8eJ	.	.	.	.	.
=43	=43	=43	=43	=43	=43	=43	=43	=43	=43
8EEE#XL	.	8FnL	.	1r	.	2r	.	2r	.
8EEE#	.	8cn	.	.	.	.	.	.	.
8EEE#	.	8fn	.	.	.	.	.	.	.
[8GGGnJ	.	[8gnJ	.	.	.	.	.	.	.
2GGG]	.	2g]	.	.	.	4r	.	4r	.
.	.	.	.	.	.	8r	.	8r	.
.	.	.	.	.	.	16r	.	16r	.
.	.	.	.	.	.	16C#	mp	16CC#	mp
=44	=44	=44	=44	=44	=44	=44	=44	=44	=44
1r	.	1r	.	2.r	.	8AL	.	8AAL	.
.	.	.	.	.	.	16AL	.	16AAL	.
.	.	.	.	.	.	16BJJ	.	16BBJJ	.
.	.	.	.	.	.	8c#L	.	8C#L	.
.	.	.	.	.	.	8eJ	.	8EJ	.
.	.	.	.	.	.	8dL	.	8DL	.
.	.	.	.	.	.	8c#J	.	8C#J	.
.	.	.	.	4dd	p	16BLL	.	16BBLL	.
.	.	.	.	.	.	16AJ	.	16AAJ	.
.	.	.	.	.	.	8AJ	.	8AAJ	.
=45	=45	=45	=45	=45	=45	=45	=45	=45	=45
1r	.	1r	.	2.cc#	.	8r	.	8r	.
.	.	.	.	.	.	8E	.	8EE	.
.	.	.	.	.	.	16ALL	.	16AALL	.
.	.	.	.	.	.	16A	.	16AA	.
.	.	.	.	.	.	16B	.	16BB	.
.	.	.	.	.	.	16BJJ	.	16BBJJ	.
.	.	.	.	.	.	8dL	.	8DL	.
.	.	.	.	.	.	16c#L	.	16C#L	.
.	.	.	.	.	.	16BJJ	.	16BBJJ	.
.	.	.	.	4cc#	.	8.c#L	.	8.C#L	.
.	.	.	.	.	.	16DJk	.	16DDJk	.
=46	=46	=46	=46	=46	=46	=46	=46	=46	=46
1r	.	1r	.	2.b	.	16BLL	.	16BBLL	.
.	.	.	.	.	.	16A	.	16AA	.
.	.	.	.	.	.	16B	.	16BB	.
.	.	.	.	.	.	16AJJ	.	16AAJJ	.
.	.	.	.	.	.	8BL	.	8BBL	.
.	.	.	.	.	.	16c#K	.	16C#K	.
.	.	.	.	.	.	8B	.	8BB	.
.	.	.	.	.	.	8A	.	8AA	.
.	.	.	.	.	.	16E#XJk	.	16EEJk	.
.	.	.	.	4b	.	16F#KL	.	16FF#KL	.
.	.	.	.	.	.	8A	.	8AA	.
.	.	.	.	.	.	16AJk	.	16AAJk	.
=47	=47	=47	=47	=47	=47	=47	=47	=47	=47
1r	.	1r	.	[2a	.	4.A	>	4.AA	>
.	.	.	.	.	.	16G#LL	.	16GG#LL	.
.	.	.	.	.	.	16EJJ	.	16EEJJ	.
.	.	.	.	8aL]	.	2F#	]	2FF#	]
.	.	.	.	8b	mf	.	.	.	.
.	.	.	.	8ee	.	.	.	.	.
.	.	.	.	[8aaJ	.	.	.	.	.
=48	=48	=48	=48	=48	=48	=48	=48	=48	=48
8EEL	mf	1r	.	2aa]	.	2r	.	2r	.
8EE	.	.	.	.	.	.	.	.	.
8EE	.	.	.	.	.	.	.	.	.
8EEJ	.	.	.	.	.	.	.	.	.
16AAAKL	.	.	.	4gg#	.	8r	.	8r	.
8AAA	.	.	.	.	.	.	.	.	.
.	.	.	.	.	.	16r	.	16r	.
8AAA	.	.	.	.	.	16a	mf	16A	mf
.	.	.	.	4ggn	.	12aL	.	12AL	.
8AAA	.	.	.	.	.	.	.	.	.
.	.	.	.	.	.	12b	.	12B	.
.	.	.	.	.	.	12cc#J	.	12c#J	.
16AAAJk	.	.	.	.	.	.	.	.	.
=49	=49	=49	=49	=49	=49	=49	=49	=49	=49
8DDL	.	8DL	mf	2f#	.	8.ff#L	.	8.f#L	.
8DD	.	8D	.	.	.	.	.	.	.
.	.	.	.	.	.	16aJk	.	16AJk	.
8DD	.	8D	.	.	.	12aL	.	12AL	.
.	.	.	.	.	.	12b	.	12B	.
8DDJ	.	8DJ	.	.	.	.	.	.	.
.	.	.	.	.	.	12cc#J	.	12c#J	.
8FF#L	.	8DL	.	2cc#	.	8.ff#L	.	8.f#L	.
8FF#	.	8DJ	.	.	.	.	.	.	.
.	.	.	.	.	.	16aJk	.	16AJk	.
8FF#	.	8DL	.	.	.	12aL	.	12AL	.
.	.	.	.	.	.	12b	.	12B	.
8FF#J	.	16DL	.	.	.	.	.	.	.
.	.	.	.	.	.	12cc#J	.	12c#J	.
.	.	16AAJJ	.	.	.	.	.	.	.
=50	=50	=50	=50	=50	=50	=50	=50	=50	=50
8EEL	.	8GG#L	.	2ee	.	16.ff#LL	.	16.f#LL	.
.	.	.	.	.	.	16.ee	.	16.e	.
8EE	.	8GG#	.	.	.	.	.	.	.
.	.	.	.	.	.	16ff#JJ	.	16f#JJ	.
8EE	.	8GG#	.	.	.	16.aaLL	.	16.aLL	.
.	.	.	.	.	.	16.gg#	.	16.g#	.
8EEJ	.	8GG#J	.	.	.	.	.	.	.
.	.	.	.	.	.	16ff#JJ	.	16f#JJ	.
8GG#L	.	8BBL	.	2b	.	8eeL	.	8eL	.
8GG#	.	8BBJ	.	.	.	16ddL	.	16dL	.
.	.	.	.	.	.	[16cc#JJ	.	[16c#JJ	.
8GG#	.	8DL	.	.	.	8cc#L]	.	8c#L]	.
8GG#J	.	16C#L	.	.	.	16ddL	.	16dL	.
.	.	16DJJ	.	.	.	[16eeJJ	.	[16eJJ	.
=51	=51	=51	=51	=51	=51	=51	=51	=51	=51
8EEL	.	8C#L	.	2ee	.	4ee]	.	4e]	.
8EE	.	8C#	.	.	.	.	.	.	.
8EE	.	8C#	.	.	.	16r	.	16r	.
.	.	.	.	.	.	16eLL	.	16ELL	.
8EEJ	.	8C#J	.	.	.	16e	.	16E	.
.	.	.	.	.	.	16eJJ	.	16EJJ	.
8GG#L	.	8C#L	.	2b	.	8eeL	.	8eL	.
8GG#	.	8C#	.	.	.	16ddK	.	16dK	.
.	.	.	.	.	.	8cc#	.	8c#	.
8GG#	.	8Fn	.	.	.	.	.	.	.
.	.	.	.	.	.	8b	.	8B	.
8GG#J	.	8FJ	.	.	.	.	.	.	.
.	.	.	.	.	.	16bJk	.	16BJk	.
=52	=52	=52	=52	=52	=52	=52	=52	=52	=52
8FF#L	.	8F#L	.	2dd	.	[4dd	.	[4d	.
8FF#	.	8F#	.	.	.	.	.	.	.
8AA	.	8F#	.	.	.	16ddKL]	.	16dKL]	.
.	.	.	.	.	.	8cc#	.	8c#	.
8AAJ	.	8F#J	.	.	.	.	.	.	.
.	.	.	.	.	.	16bJk	.	16BJk	.
8FF#L	.	8F#L	.	2cc#	.	4cc#	.	4c#	.
8FF#	.	8C#	.	.	.	.	.	.	.
8AAA	.	8C#	.	.	.	4r	.	4r	.
8GGG#J	.	8AAJ	.	.	.	.	.	.	.
=53	=53	=53	=53	=53	=53	=53	=53	=53	=53
8DDL	.	8BBL	.	2f#	.	16f#LL	.	16F#LL	.
.	.	.	.	.	.	16f#	.	16F#	.
8DD	.	8BB	.	.	.	16f#J	.	16F#J	.
.	.	.	.	.	.	8cc#	.	8c#	.
8DD	.	8BB	.	.	.	.	.	.	.
.	.	.	.	.	.	16bL	.	16BL	.
8DDJ	.	8BBJ	.	.	.	16b	.	16B	.
.	.	.	.	.	.	16cc#JJ	.	16c#JJ	.
8FF#L	.	8BBL	.	2a	.	16bLL	.	16BLL	.
.	.	.	.	.	.	16b	.	16B	.
8FF#	.	8BBJ	.	.	.	16bJ	.	16BJ	.
.	.	.	.	.	.	8cc#	.	8c#	.
8FF#	.	8BBL	.	.	.	.	.	.	.
.	.	.	.	.	.	16bL	.	16BL	.
8FF#J	.	16FF#L	.	.	.	16cc#	.	16c#	.
.	.	16FFnJJ	.	.	.	16bJJ	.	16BJJ	.
=54	=54	=54	=54	=54	=54	=54	=54	=54	=54
8EEL	.	8EEL	.	2b	.	12eeL	.	12eL	.
.	.	.	.	.	.	12ee	.	12e	.
8EE	.	8EE	.	.	.	.	.	.	.
.	.	.	.	.	.	12eeJ	.	12eJ	.
8EE	.	8EE	.	.	.	12eeL	.	12eL	.
.	.	.	.	.	.	12dd	.	12d	.
8EEJ	.	8EEJ	.	.	.	.	.	.	.
.	.	.	.	.	.	12cc#J	.	12c#J	.
16AAAKL	f	8EEL	.	2cc#	.	16cc#KL	.	16c#KL	.
8AAA	.	.	.	.	.	8b	.	8B	.
.	.	8E	.	.	.	.	.	.	.
16AAAJk	.	.	.	.	.	16aJk	.	16AJk	.
[16AAAKL	.	8E	.	.	.	12f#L 12a	f	12AL	f
8AAA]	.	.	.	.	.	.	.	.	.
.	.	.	.	.	.	12g# 12b	.	12B	.
.	.	8BBJ	.	.	.	.	.	.	.
.	.	.	.	.	.	12aJ 12cc#	.	12c#J	.
16AAAJk	.	.	.	.	.	.	.	.	.
=55	=55	=55	=55	=55	=55	=55	=55	=55	=55
*	*	*	*	*tremolo	*	*	*	*	*
8DDL	.	8FF#L	.	32f#LLL	mf	8.cc#L 8.ff#	.	8.f#L	.
.	.	.	.	32f#	.	.	.	.	.
.	.	.	.	32f#	.	.	.	.	.
.	.	.	.	32f#	.	.	.	.	.
8DD	.	16C#L	.	32f#	.	.	.	.	.
.	.	.	.	32f#	.	.	.	.	.
.	.	16BBJJ	.	32f#	.	16f#Jk 16a	.	16AJk	.
.	.	.	.	32f#	.	.	.	.	.
8DD	.	8BBL	.	32f#	.	12f#L 12a	.	12AL	.
.	.	.	.	32f#	.	.	.	.	.
.	.	.	.	32f#	.	.	.	.	.
.	.	.	.	.	.	12g# 12b	.	12B	.
.	.	.	.	32f#	.	.	.	.	.
8DDJ	.	16FF#L	.	32f#	.	.	.	.	.
.	.	.	.	32f#	.	.	.	.	.
.	.	.	.	.	.	12aJ 12cc#	.	12c#J	.
.	.	16C#JJ	.	32f#	.	.	.	.	.
.	.	.	.	32f#JJJ	.	.	.	.	.
8FF#L	.	8FF#L	.	32cc#LLL	.	8.cc#L 8.ff#	.	8.f#L	.
.	.	.	.	32cc#	.	.	.	.	.
.	.	.	.	32cc#	.	.	.	.	.
.	.	.	.	32cc#	.	.	.	.	.
8FF#	.	8C#J	.	32cc#	.	.	.	.	.
.	.	.	.	32cc#	.	.	.	.	.
.	.	.	.	32cc#	.	16f#Jk 16a	.	16AJk	.
.	.	.	.	32cc#	.	.	.	.	.
8FF#	.	8BBL	.	32cc#	.	12f#L 12a	.	12AL	.
.	.	.	.	32cc#	.	.	.	.	.
.	.	.	.	32cc#	.	.	.	.	.
.	.	.	.	.	.	12g# 12b	.	12B	.
.	.	.	.	32cc#	.	.	.	.	.
8FF#J	.	16FF#L	.	32cc#	.	.	.	.	.
.	.	.	.	32cc#	.	.	.	.	.
.	.	.	.	.	.	12aJ 12cc#	.	12c#J	.
.	.	16C#JJ	.	32cc#	.	.	.	.	.
.	.	.	.	32cc#JJJ	.	.	.	.	.
=56	=56	=56	=56	=56	=56	=56	=56	=56	=56
8EEL	.	8EEL	.	32eeLLL	.	16.cc#LL 16.ff#	.	16.f#LL	.
.	.	.	.	32ee	.	.	.	.	.
.	.	.	.	32ee	.	.	.	.	.
.	.	.	.	32ee	.	16.b 16.ee	.	16.e	.
8EE	.	16C#L	.	32ee	.	.	.	.	.
.	.	.	.	32ee	.	.	.	.	.
.	.	16BBJJ	.	32ee	.	16cc#JJ 16ff#	.	16f#JJ	.
.	.	.	.	32ee	.	.	.	.	.
8EE	.	8BBL	.	32ee	.	16.eeLL 16.aa	.	16.aLL	.
.	.	.	.	32ee	.	.	.	.	.
.	.	.	.	32ee	.	.	.	.	.
.	.	.	.	32ee	.	16.dd 16.gg#	.	16.g#	.
8EEJ	.	16EEL	.	32ee	.	.	.	.	.
.	.	.	.	32ee	.	.	.	.	.
.	.	16BBJJ	.	32ee	.	16cc#JJ 16ff#	.	16f#JJ	.
.	.	.	.	32eeJJJ	.	.	.	.	.
8GG#L	.	8EEL	.	32bLLL	.	8bL 8ee	.	8eL	.
.	.	.	.	32b	.	.	.	.	.
.	.	.	.	32b	.	.	.	.	.
.	.	.	.	32b	.	.	.	.	.
8GG#	.	8BBJ	.	32b	.	16aL 16dd	.	16dL	.
.	.	.	.	32b	.	.	.	.	.
.	.	.	.	32b	.	[16g#JJ [16cc#	.	[16c#JJ	.
.	.	.	.	32b	.	.	.	.	.
8GG#	.	8BBL	.	32b	.	8g#L] 8cc#]	.	8c#L]	.
.	.	.	.	32b	.	.	.	.	.
.	.	.	.	32b	.	.	.	.	.
.	.	.	.	32b	.	.	.	.	.
8GG#J	.	16C#L	.	32b	.	16aL 16dd	.	16dL	.
.	.	.	.	32b	.	.	.	.	.
.	.	16DJJ	.	32b	.	[16bJJ [16ee	.	[16eJJ	.
.	.	.	.	32bJJJ	.	.	.	.	.
=57	=57	=57	=57	=57	=57	=57	=57	=57	=57
8EEL	.	8EEL	.	32eeLLL	.	4b] 4ee]	.	4e]	.
.	.	.	.	32ee	.	.	.	.	.
.	.	.	.	32ee	.	.	.	.	.
.	.	.	.	32ee	.	.	.	.	.
8EE	.	16C#L	.	32ee	.	.	.	.	.
.	.	.	.	32ee	.	.	.	.	.
.	.	16BBJJ	.	32ee	.	.	.	.	.
.	.	.	.	32ee	.	.	.	.	.
8EE	.	8BBL	.	32ee	.	16r	.	16r	.
.	.	.	.	32ee	.	.	.	.	.
.	.	.	.	32ee	.	16eLL	.	16ELL	.
.	.	.	.	32ee	.	.	.	.	.
8EEJ	.	16EEL	.	32ee	.	16e	.	16E	.
.	.	.	.	32ee	.	.	.	.	.
.	.	16BBJJ	.	32ee	.	16eJJ	.	16EJJ	.
.	.	.	.	32eeJJJ	.	.	.	.	.
8GG#L	.	8EEL	.	32bLLL	.	8eeL	.	8eL	.
.	.	.	.	32b	.	.	.	.	.
.	.	.	.	32b	.	.	.	.	.
.	.	.	.	32b	.	.	.	.	.
8GG#	.	8C#	.	32b	.	16ddK	.	16dK	.
.	.	.	.	32b	.	.	.	.	.
.	.	.	.	32b	.	8cc#	.	8c#	.
.	.	.	.	32b	.	.	.	.	.
8GG#	.	8Fn	.	32b	.	.	.	.	.
.	.	.	.	32b	.	.	.	.	.
.	.	.	.	32b	.	8b	.	8B	.
.	.	.	.	32b	.	.	.	.	.
8GG#J	.	8FJ	.	32b	.	.	.	.	.
.	.	.	.	32b	.	.	.	.	.
.	.	.	.	32b	.	16bJk	.	16BJk	.
.	.	.	.	32bJJJ	.	.	.	.	.
=58	=58	=58	=58	=58	=58	=58	=58	=58	=58
8FF#L	.	8F#L	.	32ddLLL	.	[4dd	.	[4d	.
.	.	.	.	32dd	.	.	.	.	.
.	.	.	.	32dd	.	.	.	.	.
.	.	.	.	32dd	.	.	.	.	.
8FF#	.	16FF#K	.	32dd	.	.	.	.	.
.	.	.	.	32dd	.	.	.	.	.
.	.	8BB	.	32dd	.	.	.	.	.
.	.	.	.	32dd	.	.	.	.	.
8GG#	.	.	.	32dd	.	16ddKL]	.	16dKL]	.
.	.	.	.	32dd	.	.	.	.	.
.	.	8C#	.	32dd	.	8cc#	.	8c#	.
.	.	.	.	32dd	.	.	.	.	.
8GG#J	.	.	.	32dd	.	.	.	.	.
.	.	.	.	32dd	.	.	.	.	.
.	.	8BB	.	32dd	.	16bJk	.	16BJk	.
.	.	.	.	32ddJJJ	.	.	.	.	.
8AAL	.	.	.	32cc#LLL	.	4cc#	.	4c#	.
.	.	.	.	32cc#	.	.	.	.	.
.	.	16C#K	.	32cc#	.	.	.	.	.
.	.	.	.	32cc#	.	.	.	.	.
8AA	.	8BBJ	.	32cc#	.	.	.	.	.
.	.	.	.	32cc#	.	.	.	.	.
.	.	.	.	32cc#	.	.	.	.	.
.	.	.	.	32cc#	.	.	.	.	.
8AAA	.	8C#L	.	32cc#	.	4r	.	4r	.
.	.	.	.	32cc#	.	.	.	.	.
.	.	.	.	32cc#	.	.	.	.	.
.	.	.	.	32cc#	.	.	.	.	.
8AAAJ	.	16C#L	.	32cc#	.	.	.	.	.
.	.	.	.	32cc#	.	.	.	.	.
.	.	16BBJJ	.	32cc#	.	.	.	.	.
.	.	.	.	32cc#JJJ	.	.	.	.	.
=59	=59	=59	=59	=59	=59	=59	=59	=59	=59
8CC#L	.	16FF#LL	.	32f#LLL	.	16dLL 16f#	.	16F#LL	.
.	.	.	.	32f#	.	.	.	.	.
.	.	16FF#	.	32f#	.	16d 16f#	.	16F#	.
.	.	.	.	32f#	.	.	.	.	.
8CC#	.	16FF#J	.	32f#	.	16dJ 16f#	.	16F#J	.
.	.	.	.	32f#	.	.	.	.	.
.	.	8BB	.	32f#	.	8a 8cc#	.	8c#	.
.	.	.	.	32f#	.	.	.	.	.
8CC#	.	.	.	32f#	.	.	.	.	.
.	.	.	.	32f#	.	.	.	.	.
.	.	8C#	.	32f#	.	16g#L 16b	.	16BL	.
.	.	.	.	32f#	.	.	.	.	.
8CC#J	.	.	.	32f#	.	16g# 16b	.	16B	.
.	.	.	.	32f#	.	.	.	.	.
.	.	8BB	.	32f#	.	16aJJ 16cc#	.	16c#JJ	.
.	.	.	.	32f#JJJ	.	.	.	.	.
8FF#L	.	.	.	32aLLL	.	16g#LL 16b	.	16BLL	.
.	.	.	.	32a	.	.	.	.	.
.	.	16C#K	.	32a	.	16g# 16b	.	16B	.
.	.	.	.	32a	.	.	.	.	.
8FF#	.	8BBJ	.	32a	.	16g#J 16b	.	16BJ	.
.	.	.	.	32a	.	.	.	.	.
.	.	.	.	32a	.	8a 8cc#	.	8c#	.
.	.	.	.	32a	.	.	.	.	.
8FF#	.	8BBL	.	32a	.	.	.	.	.
.	.	.	.	32a	.	.	.	.	.
.	.	.	.	32a	.	16g#L 16b	.	16BL	.
.	.	.	.	32a	.	.	.	.	.
8FF#J	.	16FF#L	.	32a	.	16a 16cc#	.	16c#	.
.	.	.	.	32a	.	.	.	.	.
.	.	16FFnJJ	.	32a	.	16g#JJ 16b	.	16BJJ	.
.	.	.	.	32aJJJ	.	.	.	.	.
=60	=60	=60	=60	=60	=60	=60	=60	=60	=60
8EEL	.	12EEL	.	32bLLL	.	12cc#L 12ee	.	12eL	.
.	.	.	.	32b	.	.	.	.	.
.	.	.	.	32b	.	.	.	.	.
.	.	12EE	.	.	.	12cc# 12ee	.	12e	.
.	.	.	.	32b	.	.	.	.	.
8EE	.	.	.	32b	.	.	.	.	.
.	.	.	.	32b	.	.	.	.	.
.	.	12EEJ	.	.	.	12cc#J 12ee	.	12eJ	.
.	.	.	.	32b	.	.	.	.	.
.	.	.	.	32b	.	.	.	.	.
8EE	.	12BBL	.	32b	.	12cc#L 12ee	.	12eL	.
.	.	.	.	32b	.	.	.	.	.
.	.	.	.	32b	.	.	.	.	.
.	.	12BB	.	.	.	12b 12dd	.	12d	.
.	.	.	.	32b	.	.	.	.	.
8EEJ	.	.	.	32b	.	.	.	.	.
.	.	.	.	32b	.	.	.	.	.
.	.	12BBJ	.	.	.	12aJ 12cc#	.	12c#J	.
.	.	.	.	32b	.	.	.	.	.
.	.	.	.	32bJJJ	.	.	.	.	.
16AAAKL	.	8EL	.	32cc#LLL	.	16aKL 16cc#	.	16c#KL	.
.	.	.	.	32cc#	.	.	.	.	.
8AAA	.	.	.	32cc#	.	8g# 8b	.	8B	.
.	.	.	.	32cc#	.	.	.	.	.
.	.	16BBL	.	32cc#	.	.	.	.	.
.	.	.	.	32cc#	.	.	.	.	.
16AAAJk	.	16EJJ	.	32cc#	.	16f#Jk 16a	.	16AJk	.
.	.	.	.	32cc#	.	.	.	.	.
[16AAAKL	.	8BBL	.	32cc#	.	12f#L 12a	.	12AL	.
.	.	.	.	32cc#	.	.	.	.	.
8AAA]	.	.	.	32cc#	.	.	.	.	.
.	.	.	.	.	.	12g# 12b	.	12B	.
.	.	.	.	32cc#	.	.	.	.	.
.	.	16C#L	.	32cc#	.	.	.	.	.
.	.	.	.	32cc#	.	.	.	.	.
.	.	.	.	.	.	12aJ 12cc#	.	12c#J	.
16AAAJk	.	16BBJJ	.	32cc#	.	.	.	.	.
.	.	.	.	32cc#JJJ	.	.	.	.	.
*	*	*	*	*Xtremolo	*	*	*	*	*
=61	=61	=61	=61	=61	=61	=61	=61	=61	=61
8FFF#L	.	8GG#L	<	4g#	<	[2cc# [2ff#	.	[2f#	.
8FFF#	.	8GG#	.	.	.	.	.	.	.
8FFF#	.	8AA	.	4a	.	.	.	.	.
8FFF#J	.	8AAJ	.	.	.	.	.	.	.
8FFF#L	.	8BBL	.	4b	.	8.cc#L] 8.ff#]	.	8.f#L]	.
8FFF#	.	8BB	.	.	.	.	.	.	.
.	.	.	.	.	.	16ddJk 16ff#	.	16f#Jk	.
8FFF#	.	8C#	.	4cc#	.	12ddL 12ff#	.	12f#L	.
.	.	.	.	.	.	12cc# 12ee	.	12e	.
8FFF#J	.	8C#J	.	.	.	.	.	.	.
.	.	.	.	.	.	12aJ 12cc#	.	12c#J	.
=62	=62	=62	=62	=62	=62	=62	=62	=62	=62
8CC#L	.	8BBL	.	4cc#	.	2g# 2b	.	2B	.
8CC#	.	16BBL	.	.	.	.	.	.	.
.	.	16BBJJ	.	.	.	.	.	.	.
8CC#	.	8BBL	.	4ee#X	.	.	.	.	.
8CC#J	.	16FFnL	.	.	.	.	.	.	.
.	.	16BBJJ	.	.	.	.	.	.	.
16AAAKL	f	16C#LL	[	4gg#	.	8.e#XL 8.cc#	.	8.r	.
8AAA	.	16C#'JJ	.	.	.	.	.	.	.
.	.	8r	.	.	.	.	.	.	.
16AAAJk	.	.	.	.	.	16f#Jk 16a	.	16A	.
[16AAAKL	.	4r	.	4ggn	[	12f#L 12a	.	12AL	.
8AAA]	.	.	.	.	.	.	.	.	.
.	.	.	.	.	.	12g# 12b	.	12B	.
.	.	.	.	.	.	12aJ 12cc#	.	12c#J	.
16AAAJk	.	.	.	.	.	.	.	.	.
=63	=63	=63	=63	=63	=63	=63	=63	=63	=63
8DDL	.	8DL	.	2.ff#	.	8.cc#L 8.ff#	.	8.f#L	.
8DDJ	.	8DJ	.	.	.	.	.	.	.
.	.	.	.	.	.	16f#Jk 16a	.	16AJk	.
8DDL	.	8DL	.	.	.	12f#L 12a	.	12AL	.
.	.	.	.	.	.	12g# 12b	.	12B	.
16DDL	.	16AAK	.	.	.	.	.	.	.
.	.	.	.	.	.	12aJ 12cc#	.	12c#J	.
16DDJJ	.	8D	.	.	.	.	.	.	.
8FF#L	.	.	.	.	.	8.cc#L 8.ff#	.	8.f#L	.
.	.	16DL	.	.	.	.	.	.	.
8FF#J	.	16D	.	.	.	.	.	.	.
.	.	16DJJ	.	.	.	16f#Jk 16a	.	16AJk	.
8FF#L	.	8DL	.	4cc#	.	12f#L 12a	.	12AL	.
.	.	.	.	.	.	12g# 12b	.	12B	.
16FF#L	.	16DL	.	.	.	.	.	.	.
.	.	.	.	.	.	12aJ 12cc#	.	12c#J	.
16FF#JJ	.	16AAJJ	.	.	.	.	.	.	.
=64	=64	=64	=64	=64	=64	=64	=64	=64	=64
8EEL	.	8DL	.	1b	.	16.cc#LL 16.ff#	.	16.f#LL	.
.	.	.	.	.	.	16.b 16.ee	.	16.e	.
8EEJ	.	8DJ	.	.	.	.	.	.	.
.	.	.	.	.	.	16cc#JJ 16ff#	.	16f#JJ	.
8EEL	.	8DL	.	.	.	16.eeLL 16.aa	.	16.aLL	.
.	.	.	.	.	.	16.ee 16.gg#	.	16.g#	.
16EEL	.	16AAK	.	.	.	.	.	.	.
16EEJJ	.	8D	.	.	.	16cc#JJ 16ff#	.	16f#JJ	.
8GG#L	.	.	.	.	.	8bL 8ee	.	8eL	.
.	.	16DL	.	.	.	.	.	.	.
8GG#J	.	16D	.	.	.	16aL 16dd	.	16dL	.
.	.	16DJJ	.	.	.	[16g#JJ [16cc#	.	[16c#JJ	.
8GG#L	.	8DL	.	.	.	8g#L] 8cc#]	.	8c#L]	.
16GG#L	.	8DJ	.	.	.	16aL 16dd	.	16dL	.
16GG#JJ	.	.	.	.	.	[16bJJ [16ee	.	[16eJJ	.
=65	=65	=65	=65	=65	=65	=65	=65	=65	=65
8EEL	.	8C#L	.	4ee	.	4b] 4ee]	.	4e]	.
8EEJ	.	8C#J	.	.	.	.	.	.	.
8EEL	.	8C#L	.	4b	.	16r	.	16r	.
.	.	.	.	.	.	16bLL 16ee	.	16eLL	.
16EEL	.	16C#L	.	.	.	16b 16ee	.	16e	.
16EEJJ	.	16C#JJ	.	.	.	16bJJ 16ee	.	16eJJ	.
8GG#L	.	8FFnL	.	2g#	.	8cc#L 8ee#X	.	8eL	.
8GG#J	.	8FFJ	.	.	.	16g#K 16cc#	.	16c#K	.
.	.	.	.	.	.	8cc# 8ee#	.	8e	.
8GG#L	.	8FFL	.	.	.	.	.	.	.
.	.	.	.	.	.	8ee# 8gg#	.	8g#	.
16GG#L	.	16FFL	.	.	.	.	.	.	.
16GG#JJ	.	16FFJJ	.	.	.	16ee#Jk 16gg#	.	16g#Jk	.
=66	=66	=66	=66	=66	=66	=66	=66	=66	=66
8AAL	.	8FF#L	.	2b	.	[4ee [4gg#	.	[4g#	.
8AAJ	.	8FF#J	.	.	.	.	.	.	.
8AAL	.	8FF#L	.	.	.	16eeKL] 16gg#]	.	16g#KL]	.
.	.	.	.	.	.	8cc# 8ff#	.	8f#	.
16AAL	.	16C#L	.	.	.	.	.	.	.
16AAJJ	.	16C#JJ	.	.	.	16eeJk 16gg#	.	16g#Jk	.
8AAL	.	8F#L	.	2a	.	4ff# 4aa	.	4a	.
8AAJ	.	8F#	.	.	.	.	.	.	.
8AAL	.	8F#	.	.	.	8r	.	8r	.
16AAL	.	8EJ	.	.	.	16eLL	mf	16ELL	mf
16AAJJ	.	.	.	.	.	[16cc#JJ	.	[16c#JJ	.
=67	=67	=67	=67	=67	=67	=67	=67	=67	=67
1DD	mf	2D	mf	1f#	mf	4cc#_	.	4c#_	.
.	.	.	.	.	.	8cc#L]	.	8c#L]	.
.	.	.	.	.	.	16bJk	.	16BJk	.
.	.	.	.	.	.	[4ee	.	[4e	.
.	.	2FF#	.	.	.	.	.	.	.
.	.	.	.	.	.	16ee]	.	16e]	.
.	.	.	.	.	.	8r	.	8r	.
.	.	.	.	.	.	8ff#	.	8f#	.
=68	=68	=68	=68	=68	=68	=68	=68	=68	=68
1EE	.	1GG#	.	2g#	.	8eeL	.	8eL	.
.	.	.	.	.	.	16cc#L	.	16c#L	.
.	.	.	.	.	.	[16bJJ	.	[16BJJ	.
.	.	.	.	.	.	8bL]	.	8BL]	.
.	.	.	.	.	.	8aJ	.	8AJ	.
.	.	.	.	8AL	f	8bL	.	8BL	.
.	.	.	.	8B	.	16cc#L	.	16c#L	.
.	.	.	.	.	.	[16cc#JJ	.	[16c#JJ	.
.	.	.	.	8c#	.	4cc#]	.	4c#]	.
.	.	.	.	8f#J	.	.	.	.	.
=69	=69	=69	=69	=69	=69	=69	=69	=69	=69
8DD	.	8D^L	.	2e	.	1ee	.	1r	.
4DD	.	8DJ	.	.	.	.	.	.	.
.	.	8D^L	.	.	.	.	.	.	.
8DD	.	16DL	.	.	.	.	.	.	.
.	.	16DJJ	.	.	.	.	.	.	.
8DD	.	8D^L	.	4A	.	.	.	.	.
4DD	.	8DJ	.	.	.	.	.	.	.
.	.	8D^L	.	8BL	.	.	.	.	.
8DD	.	16DL	.	[8G#J	.	.	.	.	.
.	.	16DJJ	.	.	.	.	.	.	.
=70	=70	=70	=70	=70	=70	=70	=70	=70	=70
8CC#	.	8C#^L	.	4G#]	.	2cc#	.	1r	.
4CC#	.	8C#J	.	.	.	.	.	.	.
.	.	8C#^L	.	4a	.	.	.	.	.
8CC#	.	16C#L	.	.	.	.	.	.	.
.	.	16C#JJ	.	.	.	.	.	.	.
8EE#X	.	8C#^L	.	4g#	.	2ee#X	.	.	.
4EE#	.	8C#J	.	.	.	.	.	.	.
.	.	8C#^L	.	8BL	.	.	.	.	.
8EE#	.	16C#L	.	[8AJ	.	.	.	.	.
.	.	16C#JJ	.	.	.	.	.	.	.
=71	=71	=71	=71	=71	=71	=71	=71	=71	=71
8FF#	.	8FF#^L	.	4.A]	.	1ff#	.	1r	.
4FF#	.	8FF#J	.	.	.	.	.	.	.
.	.	8FF#^L	.	.	.	.	.	.	.
8FF#	.	16FF#L	.	8G#	.	.	.	.	.
.	.	16FF#JJ	.	.	.	.	.	.	.
8FF#	.	8FF#^L	.	4A	.	.	.	.	.
4FF#	.	8FF#J	.	.	.	.	.	.	.
.	.	8FF#^L	.	8c#L	.	.	.	.	.
8FF#	.	16FF#L	.	[8g#J	.	.	.	.	.
.	.	16FF#JJ	.	.	.	.	.	.	.
=72	=72	=72	=72	=72	=72	=72	=72	=72	=72
8BB	.	8D#X^L	.	2g#]	.	1dd#X	.	1r	.
4BB	.	8D#J	.	.	.	.	.	.	.
.	.	8D#^L	.	.	.	.	.	.	.
8BB	.	16D#L	.	.	.	.	.	.	.
.	.	16D#JJ	.	.	.	.	.	.	.
8DD#X	.	8D#^L	.	4f#	.	.	.	.	.
4DD#	.	8D#J	.	.	.	.	.	.	.
.	.	8D#^L	.	4b	.	.	.	.	.
8DD#	.	16D#L	.	.	.	.	.	.	.
.	.	16D#JJ	.	.	.	.	.	.	.
=73	=73	=73	=73	=73	=73	=73	=73	=73	=73
8DD	.	8D^L	.	4a	.	1dd	.	1r	.
4DD	.	8DJ	.	.	.	.	.	.	.
.	.	8D^L	.	8f#L	.	.	.	.	.
8DD	.	16DL	.	[8eJ	.	.	.	.	.
.	.	16DJJ	.	.	.	.	.	.	.
8DD	.	8D^L	.	8e]	.	.	.	.	.
4DD	.	8DJ	.	4d	.	.	.	.	.
.	.	8D^L	.	.	.	.	.	.	.
8DD	.	16DL	.	8A	.	.	.	.	.
.	.	16DJJ	.	.	.	.	.	.	.
=74	=74	=74	=74	=74	=74	=74	=74	=74	=74
8AAAL	.	8AAL	.	2B	.	2b	.	1r	.
8BBB	.	8AAJ	.	.	.	.	.	.	.
8EE	.	8AAL	.	.	.	.	.	.	.
8AAAJ	.	16AAL	.	.	.	.	.	.	.
.	.	16AAJJ	.	.	.	.	.	.	.
2AAA	.	2AA	.	8AL	.	2r	.	.	.
.	.	.	.	8B	.	.	.	.	.
.	.	.	.	8c#	.	.	.	.	.
.	.	.	.	8f#J	.	.	.	.	.
=75	=75	=75	=75	=75	=75	=75	=75	=75	=75
8DD	.	1r	.	2e	.	1ee	.	1r	.
4DD	.	.	.	.	.	.	.	.	.
8DD	.	.	.	.	.	.	.	.	.
8DD	.	.	.	4A	.	.	.	.	.
4DD	.	.	.	.	.	.	.	.	.
.	.	.	.	8BL	.	.	.	.	.
8DD	.	.	.	[8G#J	.	.	.	.	.
=76	=76	=76	=76	=76	=76	=76	=76	=76	=76
8CC#	.	1r	.	4G#]	.	2cc#	.	1r	.
4CC#	.	.	.	.	.	.	.	.	.
.	.	.	.	4a	.	.	.	.	.
8CC#	.	.	.	.	.	.	.	.	.
8EE#X	.	.	.	4g#	.	2ee#X	.	.	.
4EE#	.	.	.	.	.	.	.	.	.
.	.	.	.	8BL	.	.	.	.	.
8EE#	.	.	.	[8AJ	.	.	.	.	.
=77	=77	=77	=77	=77	=77	=77	=77	=77	=77
8FF#	.	1r	.	4.A]	.	1ff#	.	1r	.
4FF#	.	.	.	.	.	.	.	.	.
8FF#	.	.	.	8G#	.	.	.	.	.
8FF#	.	.	.	4A	.	.	.	.	.
4FF#	.	.	.	.	.	.	.	.	.
.	.	.	.	8c#L	.	.	.	.	.
8FF#	.	.	.	[8g#J	.	.	.	.	.
=78	=78	=78	=78	=78	=78	=78	=78	=78	=78
8BB	.	1r	.	2g#]	.	1dd#X	.	1r	.
4BB	.	.	.	.	.	.	.	.	.
8BB	.	.	.	.	.	.	.	.	.
8DD#X	.	.	.	4f#	.	.	.	.	.
4DD#	.	.	.	.	.	.	.	.	.
.	.	.	.	4g#	.	.	.	.	.
8DD#	.	.	.	.	.	.	.	.	.
=79	=79	=79	=79	=79	=79	=79	=79	=79	=79
8DD	.	1r	.	4a	.	1dd	.	1r	.
4DD	.	.	.	.	.	.	.	.	.
.	.	.	.	8f#L	>	.	.	.	.
8DD	.	.	.	[8eJ	.	.	.	.	.
8DD	.	.	.	8e]	.	.	.	.	.
4DD	.	.	.	4d	.	.	.	.	.
8DD	.	.	.	8A	]]	.	.	.	.
=80	=80	=80	=80	=80	=80	=80	=80	=80	=80
8AAAL	mp	1r	.	1B	mp	1b	mp	1r	.
8BBB	.	.	.	.	.	.	.	.	.
8EE	.	.	.	.	.	.	.	.	.
8AAAJ	.	.	.	.	.	.	.	.	.
2GGG#	.	.	.	.	.	.	.	.	.
==	==	==	==	==	==	==	==	==	==
*-	*-	*-	*-	*-	*-	*-	*-	*-	*-
